pix_core/e/styleparagraph.svg

<svg preserveAspectRatio="xMinYMid meet" viewBox="0 0 448 512" xmlns="http://www.w3.org/2000/svg"><path d="m254 52.8c-4.7-12.5-16.7-20.8-30-20.8s-25.3 8.3-30 20.8l-136.2 363.2h-25.8c-17.7 0-32 14.3-32 32s14.3 32 32 32h96c17.7 0 32-14.3 32-32s-14.3-32-32-32h-1.8l18-48h159.6l18 48h-1.8c-17.7 0-32 14.3-32 32s14.3 32 32 32h96c17.7 0 32-14.3 32-32s-14.3-32-32-32h-25.8zm25.8 251.2h-111.6l55.8-148.9z" fill="#fff"/></svg>

<svg xmlns="http://www.w3.org/2000/svg" viewBox="0 0 448 512" preserveAspectRatio="xMinYMid meet"><!--!Font Awesome Free 6.5.2 by @fontawesome - https://fontawesome.com License - https://fontawesome.com/license/free Copyright 2024 Fonticons, Inc.--><path fill="#fff" d="M254 52.8C249.3 40.3 237.3 32 224 32s-25.3 8.3-30 20.8L57.8 416H32c-17.7 0-32 14.3-32 32s14.3 32 32 32h96c17.7 0 32-14.3 32-32s-14.3-32-32-32h-1.8l18-48H303.8l18 48H320c-17.7 0-32 14.3-32 32s14.3 32 32 32h96c17.7 0 32-14.3 32-32s-14.3-32-32-32H390.2L254 52.8zM279.8 304H168.2L224 155.1 279.8 304z"/></svg>
